luts/slog3-to-rec709.cube
TITLE "Sony S-Log3 to Rec.709 3D LUT"
LUT_3D_SIZE 5
0.000000 0.000000 0.000000
0.212791 0.000000 0.000000
0.805827 0.000000 0.000000
1.000000 0.000000 0.000000
1.000000 0.000000 0.000000
0.000000 0.174067 0.000000
0.173286 0.164630 0.000000
0.795841 0.069481 0.000000
1.000000 0.000000 0.000000
1.000000 0.000000 0.000000
0.000000 0.709739 0.000000
0.000000 0.707284 0.000000
0.713083 0.687892 0.000000
1.000000 0.462050 0.000000
1.000000 0.000000 0.000000
0.000000 1.000000 0.000000
0.000000 1.000000 0.000000
0.000000 1.000000 0.000000
1.000000 1.000000 0.000000
1.000000 1.000000 0.000000
0.000000 1.000000 0.000000
0.000000 1.000000 0.000000
0.000000 1.000000 0.000000
0.000000 1.000000 0.000000
1.000000 1.000000 0.000000
0.000000 0.000000 0.161741
0.187016 0.000000 0.155662
0.799140 0.000000 0.100595
1.000000 0.000000 0.000000
1.000000 0.000000 0.000000
0.000000 0.146226 0.126464
0.142254 0.135400 0.119163
0.789061 0.026145 0.050807
1.000000 0.000000 0.000000
1.000000 0.000000 0.000000
0.000000 0.702774 0.000000
0.000000 0.700293 0.000000
0.705441 0.680688 0.000000
1.000000 0.451086 0.000000
1.000000 0.000000 0.000000
0.000000 1.000000 0.000000
0.000000 1.000000 0.000000
0.000000 1.000000 0.000000
1.000000 1.000000 0.000000
1.000000 1.000000 0.000000
0.000000 1.000000 0.000000
0.000000 1.000000 0.000000
0.000000 1.000000 0.000000
0.000000 1.000000 0.000000
1.000000 1.000000 0.000000
0.000000 0.000000 0.669095
0.000000 0.000000 0.667493
0.744961 0.000000 0.654906
1.000000 0.000000 0.519330
1.000000 0.000000 0.000000
0.000000 0.000000 0.660387
0.000000 0.000000 0.658762
0.734075 0.000000 0.645994
1.000000 0.000000 0.507928
1.000000 0.000000 0.000000
0.000000 0.645926 0.588080
0.000000 0.643210 0.586244
0.642761 0.621688 0.571767
1.000000 0.354691 0.408504
1.000000 0.000000 0.000000
0.000000 1.000000 0.000000
0.000000 1.000000 0.000000
0.000000 1.000000 0.000000
1.000000 1.000000 0.000000
1.000000 1.000000 0.000000
0.000000 1.000000 0.000000
0.000000 1.000000 0.000000
0.000000 1.000000 0.000000
0.000000 1.000000 0.000000
1.000000 1.000000 0.000000
0.000000 0.000000 1.000000
0.000000 0.000000 1.000000
0.000000 0.000000 1.000000
1.000000 0.000000 1.000000
1.000000 0.000000 1.000000
0.000000 0.000000 1.000000
0.000000 0.000000 1.000000
0.000000 0.000000 1.000000
1.000000 0.000000 1.000000
1.000000 0.000000 1.000000
0.000000 0.000000 1.000000
0.000000 0.000000 1.000000
0.000000 0.000000 1.000000
1.000000 0.000000 1.000000
1.000000 0.000000 1.000000
0.000000 1.000000 1.000000
0.000000 1.000000 1.000000
0.000000 1.000000 1.000000
1.000000 1.000000 1.000000
1.000000 1.000000 1.000000
0.000000 1.000000 0.000000
0.000000 1.000000 0.000000
0.000000 1.000000 0.000000
0.000000 1.000000 0.000000
1.000000 1.000000 0.000000
0.000000 0.000000 1.000000
0.000000 0.000000 1.000000
0.000000 0.000000 1.000000
0.000000 0.000000 1.000000
1.000000 0.000000 1.000000
0.000000 0.000000 1.000000
0.000000 0.000000 1.000000
0.000000 0.000000 1.000000
0.000000 0.000000 1.000000
1.000000 0.000000 1.000000
0.000000 0.000000 1.000000
0.000000 0.000000 1.000000
0.000000 0.000000 1.000000
0.000000 0.000000 1.000000
1.000000 0.000000 1.000000
0.000000 0.000000 1.000000
0.000000 0.000000 1.000000
0.000000 0.000000 1.000000
0.000000 0.000000 1.000000
1.000000 0.000000 1.000000
0.000000 1.000000 1.000000
0.000000 1.000000 1.000000
0.000000 1.000000 1.000000
0.000000 1.000000 1.000000
1.000000 1.000000 1.000000
