luts/slog3-to-rec709.cube
TITLE "Sony S-Log3 to Rec.709 3D LUT"
LUT_3D_SIZE 33
0.000000 0.000000 0.000000
0.000000 0.000000 0.000000
0.002266 0.000000 0.000000
0.036925 0.000000 0.000000
0.071584 0.000000 0.000000
0.104651 0.000000 0.000000
0.131396 0.000000 0.000000
0.170121 0.000000 0.000000
0.212791 0.000000 0.000000
0.260201 0.000000 0.000000
0.313181 0.000000 0.000000
0.372630 0.000000 0.000000
0.439537 0.000000 0.000000
0.515001 0.000000 0.000000
0.600252 0.000000 0.000000
0.696674 0.000000 0.000000
0.805827 0.000000 0.000000
0.929474 0.000000 0.000000
1.000000 0.000000 0.000000
1.000000 0.000000 0.000000
1.000000 0.000000 0.000000
1.000000 0.000000 0.000000
1.000000 0.000000 0.000000
1.000000 0.000000 0.000000
1.000000 0.000000 0.000000
1.000000 0.000000 0.000000
1.000000 0.000000 0.000000
1.000000 0.000000 0.000000
1.000000 0.000000 0.000000
1.000000 0.000000 0.000000
1.000000 0.000000 0.000000
1.000000 0.000000 0.000000
1.000000 0.000000 0.000000
0.000000 0.000000 0.000000
0.000000 0.000000 0.000000
0.000000 0.000000 0.000000
0.029688 0.000000 0.000000
0.064346 0.000000 0.000000
0.098287 0.000000 0.000000
0.125948 0.000000 0.000000
0.165635 0.000000 0.000000
0.209054 0.000000 0.000000
0.257064 0.000000 0.000000
0.310533 0.000000 0.000000
0.370387 0.000000 0.000000
0.437631 0.000000 0.000000
0.513378 0.000000 0.000000
0.598868 0.000000 0.000000
0.695493 0.000000 0.000000
0.804818 0.000000 0.000000
0.928611 0.000000 0.000000
1.000000 0.000000 0.000000
1.000000 0.000000 0.000000
1.000000 0.000000 0.000000
1.000000 0.000000 0.000000
1.000000 0.000000 0.000000
1.000000 0.000000 0.000000
1.000000 0.000000 0.000000
1.000000 0.000000 0.000000
1.000000 0.000000 0.000000
1.000000 0.000000 0.000000
1.000000 0.000000 0.000000
1.000000 0.000000 0.000000
1.000000 0.000000 0.000000
1.000000 0.000000 0.000000
1.000000 0.000000 0.000000
0.000000 0.000000 0.000000
0.000000 0.000000 0.000000
0.000000 0.000000 0.000000
0.022450 0.000000 0.000000
0.057109 0.000000 0.000000
0.091661 0.000000 0.000000
0.120334 0.000000 0.000000
0.161053 0.000000 0.000000
0.205261 0.000000 0.000000
0.253893 0.000000 0.000000
0.307865 0.000000 0.000000
0.368130 0.000000 0.000000
0.435717 0.000000 0.000000
0.511750 0.000000 0.000000
0.597481 0.000000 0.000000
0.694309 0.000000 0.000000
0.803807 0.000000 0.000000
0.927747 0.000000 0.000000
1.000000 0.000000 0.000000
1.000000 0.000000 0.000000
1.000000 0.000000 0.000000
1.000000 0.000000 0.000000
1.000000 0.000000 0.000000
1.000000 0.000000 0.000000
1.000000 0.000000 0.000000
1.000000 0.000000 0.000000
1.000000 0.000000 0.000000
1.000000 0.000000 0.000000
1.000000 0.000000 0.000000
1.000000 0.000000 0.000000
1.000000 0.000000 0.000000
1.000000 0.000000 0.000000
1.000000 0.000000 0.000000
0.000000 0.018498 0.000000
0.000000 0.016939 0.000000
0.000000 0.015380 0.000000
0.015212 0.013822 0.000000
0.049871 0.012263 0.000000
0.084741 0.010704 0.000000
0.114539 0.009197 0.000000
0.156372 0.006605 0.000000
0.201409 0.003171 0.000000
0.250686 0.000000 0.000000
0.305174 0.000000 0.000000
0.365861 0.000000 0.000000
0.433794 0.000000 0.000000
0.510116 0.000000 0.000000
0.596090 0.000000 0.000000
0.693123 0.000000 0.000000
0.802795 0.000000 0.000000
0.926882 0.000000 0.000000
1.000000 0.000000 0.000000
1.000000 0.000000 0.000000
1.000000 0.000000 0.000000
1.000000 0.000000 0.000000
1.000000 0.000000 0.000000
1.000000 0.000000 0.000000
1.000000 0.000000 0.000000
1.000000 0.000000 0.000000
1.000000 0.000000 0.000000
1.000000 0.000000 0.000000
1.000000 0.000000 0.000000
1.000000 0.000000 0.000000
1.000000 0.000000 0.000000
1.000000 0.000000 0.000000
1.000000 0.000000 0.000000
0.000000 0.045627 0.000000
0.000000 0.044069 0.000000
0.000000 0.042510 0.000000
0.007975 0.040951 0.000000
0.042633 0.039393 0.000000
0.077292 0.037834 0.000000
0.108545 0.036327 0.000000
0.151582 0.033735 0.000000
0.197496 0.030301 0.000000
0.247444 0.025750 0.000000
0.302462 0.019719 0.000000
0.363577 0.011729 0.000000
0.431863 0.001140 0.000000
0.508477 0.000000 0.000000
0.594696 0.000000 0.000000
0.691935 0.000000 0.000000
0.801781 0.000000 0.000000
0.926017 0.000000 0.000000
1.000000 0.000000 0.000000
1.000000 0.000000 0.000000
1.000000 0.000000 0.000000
1.000000 0.000000 0.000000
1.000000 0.000000 0.000000
1.000000 0.000000 0.000000
1.000000 0.000000 0.000000
1.000000 0.000000 0.000000
1.000000 0.000000 0.000000
1.000000 0.000000 0.000000
1.000000 0.000000 0.000000
1.000000 0.000000 0.000000
1.000000 0.000000 0.000000
1.000000 0.000000 0.000000
1.000000 0.000000 0.000000
0.000000 0.072757 0.000000
0.000000 0.071198 0.000000
0.000000 0.069640 0.000000
0.000737 0.068081 0.000000
0.035396 0.066522 0.000000
0.070054 0.064964 0.000000
0.102331 0.063456 0.000000
0.146678 0.060864 0.000000
0.193519 0.057430 0.000000
0.244164 0.052879 0.000000
0.299727 0.046849 0.000000
0.361280 0.038858 0.000000
0.429922 0.028269 0.000000
0.506833 0.014238 0.000000
0.593299 0.000000 0.000000
0.690745 0.000000 0.000000
0.800766 0.000000 0.000000
0.925150 0.000000 0.000000
1.000000 0.000000 0.000000
1.000000 0.000000 0.000000
1.000000 0.000000 0.000000
1.000000 0.000000 0.000000
1.000000 0.000000 0.000000
1.000000 0.000000 0.000000
1.000000 0.000000 0.000000
1.000000 0.000000 0.000000
1.000000 0.000000 0.000000
1.000000 0.000000 0.000000
1.000000 0.000000 0.000000
1.000000 0.000000 0.000000
1.000000 0.000000 0.000000
1.000000 0.000000 0.000000
1.000000 0.000000 0.000000
0.000000 0.098276 0.000000
0.000000 0.096872 0.000000
0.000000 0.095456 0.000000
0.000000 0.094027 0.000000
0.028396 0.092585 0.000000
0.063055 0.091129 0.000000
0.096091 0.089709 0.000000
0.141820 0.087235 0.000000
0.189609 0.083894 0.000000
0.240955 0.079116 0.000000
0.297060 0.073085 0.000000
0.359044 0.065094 0.000000
0.428038 0.054506 0.000000
0.505238 0.040474 0.000000
0.591944 0.021882 0.000000
0.689592 0.000000 0.000000
0.799783 0.000000 0.000000
0.924311 0.000000 0.000000
1.000000 0.000000 0.000000
1.000000 0.000000 0.000000
1.000000 0.000000 0.000000
1.000000 0.000000 0.000000
1.000000 0.000000 0.000000
1.000000 0.000000 0.000000
1.000000 0.000000 0.000000
1.000000 0.000000 0.000000
1.000000 0.000000 0.000000
1.000000 0.000000 0.000000
1.000000 0.000000 0.000000
1.000000 0.000000 0.000000
1.000000 0.000000 0.000000
1.000000 0.000000 0.000000
1.000000 0.000000 0.000000
0.000000 0.134590 0.000000
0.000000 0.133450 0.000000
0.000000 0.132303 0.000000
0.000000 0.131148 0.000000
0.016362 0.129987 0.000000
0.051021 0.128818 0.000000
0.084749 0.127681 0.000000
0.133173 0.125710 0.000000
0.182730 0.123064 0.000000
0.235349 0.119498 0.000000
0.292423 0.114659 0.000000
0.355170 0.108034 0.000000
0.424779 0.098833 0.000000
0.502482 0.085769 0.000000
0.589607 0.066991 0.000000
0.687605 0.042354 0.000000
0.798090 0.009706 0.000000
0.922867 0.000000 0.000000
1.000000 0.000000 0.000000
1.000000 0.000000 0.000000
1.000000 0.000000 0.000000
1.000000 0.000000 0.000000
1.000000 0.000000 0.000000
1.000000 0.000000 0.000000
1.000000 0.000000 0.000000
1.000000 0.000000 0.000000
1.000000 0.000000 0.000000
1.000000 0.000000 0.000000
1.000000 0.000000 0.000000
1.000000 0.000000 0.000000
1.000000 0.000000 0.000000
1.000000 0.000000 0.000000
1.000000 0.000000 0.000000
0.000000 0.174067 0.000000
0.000000 0.173126 0.000000
0.000000 0.172180 0.000000
0.000000 0.171231 0.000000
0.000415 0.170277 0.000000
0.035074 0.169319 0.000000
0.068591 0.168389 0.000000
0.121070 0.166781 0.000000
0.173286 0.164630 0.000000
0.227739 0.161748 0.000000
0.286172 0.157867 0.000000
0.349972 0.152612 0.000000
0.420421 0.145433 0.000000
0.498808 0.135505 0.000000
0.586495 0.121498 0.000000
0.684962 0.101064 0.000000
0.795841 0.069481 0.000000
0.920949 0.026220 0.000000
1.000000 0.000000 0.000000
1.000000 0.000000 0.000000
1.000000 0.000000 0.000000
1.000000 0.000000 0.000000
1.000000 0.000000 0.000000
1.000000 0.000000 0.000000
1.000000 0.000000 0.000000
1.000000 0.000000 0.000000
1.000000 0.000000 0.000000
1.000000 0.000000 0.000000
1.000000 0.000000 0.000000
1.000000 0.000000 0.000000
1.000000 0.000000 0.000000
1.000000 0.000000 0.000000
1.000000 0.000000 0.000000
0.000000 0.217531 0.000000
0.000000 0.216745 0.000000
0.000000 0.215958 0.000000
0.000000 0.215167 0.000000
0.000000 0.214375 0.000000
0.013943 0.213579 0.000000
0.047460 0.212808 0.000000
0.103653 0.211476 0.000000
0.160117 0.209701 0.000000
0.217308 0.207329 0.000000
0.277694 0.204150 0.000000
0.342970 0.199875 0.000000
0.414577 0.194092 0.000000
0.493895 0.186206 0.000000
0.582345 0.175327 0.000000
0.681443 0.160043 0.000000
0.792849 0.137908 0.000000
0.918401 0.103947 0.000000
1.000000 0.048103 0.000000
1.000000 0.000000 0.000000
1.000000 0.000000 0.000000
1.000000 0.000000 0.000000
1.000000 0.000000 0.000000
1.000000 0.000000 0.000000
1.000000 0.000000 0.000000
1.000000 0.000000 0.000000
1.000000 0.000000 0.000000
1.000000 0.000000 0.000000
1.000000 0.000000 0.000000
1.000000 0.000000 0.000000
1.000000 0.000000 0.000000
1.000000 0.000000 0.000000
1.000000 0.000000 0.000000
0.000000 0.265796 0.000000
0.000000 0.265136 0.000000
0.000000 0.264474 0.000000
0.000000 0.263811 0.000000
0.000000 0.263147 0.000000
0.000000 0.262481 0.000000
0.019459 0.261835 0.000000
0.077088 0.260722 0.000000
0.141292 0.259240 0.000000
0.202801 0.257265 0.000000
0.266086 0.254628 0.000000
0.333477 0.251095 0.000000
0.406705 0.246345 0.000000
0.487308 0.239925 0.000000
0.576797 0.231182 0.000000
0.676750 0.219142 0.000000
0.788866 0.202272 0.000000
0.915012 0.177957 0.000000
1.000000 0.141018 0.000000
1.000000 0.077099 0.000000
1.000000 0.000000 0.000000
1.000000 0.000000 0.000000
1.000000 0.000000 0.000000
1.000000 0.000000 0.000000
1.000000 0.000000 0.000000
1.000000 0.000000 0.000000
1.000000 0.000000 0.000000
1.000000 0.000000 0.000000
1.000000 0.000000 0.000000
1.000000 0.000000 0.000000
1.000000 0.000000 0.000000
1.000000 0.000000 0.000000
1.000000 0.000000 0.000000
0.000000 0.319712 0.000000
0.000000 0.319154 0.000000
0.000000 0.318596 0.000000
0.000000 0.318037 0.000000
0.000000 0.317476 0.000000
0.000000 0.316915 0.000000
0.000000 0.316371 0.000000
0.039983 0.315434 0.000000
0.113150 0.314189 0.000000
0.182153 0.312532 0.000000
0.249971 0.310323 0.000000
0.320490 0.307373 0.000000
0.396037 0.303424 0.000000
0.478437 0.298117 0.000000
0.569359 0.290947 0.000000
0.670477 0.281192 0.000000
0.783554 0.267772 0.000000
0.910501 0.249007 0.000000
1.000000 0.222050 0.000000
1.000000 0.181364 0.000000
1.000000 0.112472 0.000000
1.000000 0.000000 0.000000
1.000000 0.000000 0.000000
1.000000 0.000000 0.000000
1.000000 0.000000 0.000000
1.000000 0.000000 0.000000
1.000000 0.000000 0.000000
1.000000 0.000000 0.000000
1.000000 0.000000 0.000000
1.000000 0.000000 0.000000
1.000000 0.000000 0.000000
1.000000 0.000000 0.000000
1.000000 0.000000 0.000000
0.000000 0.380195 0.000000
0.000000 0.379722 0.000000
0.000000 0.379249 0.000000
0.000000 0.378775 0.000000
0.000000 0.378301 0.000000
0.000000 0.377825 0.000000
0.000000 0.377366 0.000000
0.000000 0.376573 0.000000
0.067180 0.375521 0.000000
0.151537 0.374123 0.000000
0.227101 0.372262 0.000000
0.302484 0.369782 0.000000
0.381453 0.366471 0.000000
0.466419 0.362038 0.000000
0.559344 0.356083 0.000000
0.662067 0.348043 0.000000
0.776454 0.337107 0.000000
0.904484 0.322078 0.000000
1.000000 0.301091 0.000000
1.000000 0.271012 0.000000
1.000000 0.225820 0.000000
1.000000 0.150240 0.000000
1.000000 0.000000 0.000000
1.000000 0.000000 0.000000
1.000000 0.000000 0.000000
1.000000 0.000000 0.000000
1.000000 0.000000 0.000000
1.000000 0.000000 0.000000
1.000000 0.000000 0.000000
1.000000 0.000000 0.000000
1.000000 0.000000 0.000000
1.000000 0.000000 0.000000
1.000000 0.000000 0.000000
0.000000 0.448251 0.000000
0.000000 0.447849 0.000000
0.000000 0.447447 0.000000
0.000000 0.447045 0.000000
0.000000 0.446642 0.000000
0.000000 0.446238 0.000000
0.000000 0.445848 0.000000
0.000000 0.445176 0.000000
0.002027 0.444284 0.000000
0.102021 0.443099 0.000000
0.193376 0.441525 0.000000
0.276984 0.439429 0.000000
0.361251 0.436637 0.000000
0.449996 0.432909 0.000000
0.545779 0.427920 0.000000
0.650745 0.421218 0.000000
0.766937 0.412172 0.000000
0.896443 0.399874 0.000000
1.000000 0.382984 0.000000
1.000000 0.359420 0.000000
1.000000 0.325705 0.000000
1.000000 0.275212 0.000000
1.000000 0.191484 0.000000
1.000000 0.000000 0.000000
1.000000 0.000000 0.000000
1.000000 0.000000 0.000000
1.000000 0.000000 0.000000
1.000000 0.000000 0.000000
1.000000 0.000000 0.000000
1.000000 0.000000 0.000000
1.000000 0.000000 0.000000
1.000000 0.000000 0.000000
1.000000 0.000000 0.000000
0.000000 0.525000 0.000000
0.000000 0.524658 0.000000
0.000000 0.524315 0.000000
0.000000 0.523973 0.000000
0.000000 0.523630 0.000000
0.000000 0.523287 0.000000
0.000000 0.522955 0.000000
0.000000 0.522383 0.000000
0.000000 0.521625 0.000000
0.016884 0.520618 0.000000
0.139538 0.519281 0.000000
0.239521 0.517504 0.000000
0.332682 0.515140 0.000000
0.427261 0.511990 0.000000
0.527247 0.507784 0.000000
0.635412 0.502156 0.000000
0.754124 0.494598 0.000000
0.885664 0.484397 0.000000
1.000000 0.470535 0.000000
1.000000 0.451504 0.000000
1.000000 0.424973 0.000000
1.000000 0.387058 0.000000
1.000000 0.330409 0.000000
1.000000 0.237033 0.000000
1.000000 0.012955 0.000000
1.000000 0.000000 0.000000
1.000000 0.000000 0.000000
1.000000 0.000000 0.000000
1.000000 0.000000 0.000000
1.000000 0.000000 0.000000
1.000000 0.000000 0.000000
1.000000 0.000000 0.000000
1.000000 0.000000 0.000000
0.000000 0.611694 0.000000
0.000000 0.611402 0.000000
0.000000 0.611110 0.000000
0.000000 0.610817 0.000000
0.000000 0.610525 0.000000
0.000000 0.610233 0.000000
0.000000 0.609950 0.000000
0.000000 0.609463 0.000000
0.000000 0.608817 0.000000
0.000000 0.607960 0.000000
0.036571 0.606822 0.000000
0.180235 0.605312 0.000000
0.290824 0.603304 0.000000
0.395145 0.600632 0.000000
0.501606 0.597072 0.000000
0.614470 0.592321 0.000000
0.736775 0.585962 0.000000
0.871154 0.577424 0.000000
1.000000 0.565902 0.000000
1.000000 0.550248 0.000000
1.000000 0.528766 0.000000
1.000000 0.498833 0.000000
1.000000 0.456094 0.000000
1.000000 0.392345 0.000000
1.000000 0.287719 0.000000
1.000000 0.030525 0.000000
1.000000 0.000000 0.000000
1.000000 0.000000 0.000000
1.000000 0.000000 0.000000
1.000000 0.000000 0.000000
1.000000 0.000000 0.000000
1.000000 0.000000 0.000000
1.000000 0.000000 0.000000
0.000000 0.709739 0.000000
0.000000 0.709490 0.000000
0.000000 0.709241 0.000000
0.000000 0.708991 0.000000
0.000000 0.708742 0.000000
0.000000 0.708492 0.000000
0.000000 0.708251 0.000000
0.000000 0.707835 0.000000
0.000000 0.707284 0.000000
0.000000 0.706554 0.000000
0.000000 0.705584 0.000000
0.062658 0.704297 0.000000
0.224981 0.702588 0.000000
0.348181 0.700316 0.000000
0.465413 0.697294 0.000000
0.585505 0.693267 0.000000
0.713083 0.687892 0.000000
0.851508 0.680700 0.000000
1.000000 0.671043 0.000000
1.000000 0.658014 0.000000
1.000000 0.640314 0.000000
1.000000 0.616030 0.000000
1.000000 0.582208 0.000000
1.000000 0.533946 0.000000
1.000000 0.462050 0.000000
1.000000 0.344423 0.000000
1.000000 0.053807 0.000000
1.000000 0.000000 0.000000
1.000000 0.000000 0.000000
1.000000 0.000000 0.000000
1.000000 0.000000 0.000000
1.000000 0.000000 0.000000
1.000000 0.000000 0.000000
0.000000 0.820724 0.000000
0.000000 0.820511 0.000000
0.000000 0.820298 0.000000
0.000000 0.820084 0.000000
0.000000 0.819871 0.000000
0.000000 0.819658 0.000000
0.000000 0.819452 0.000000
0.000000 0.819097 0.000000
0.000000 0.818627 0.000000
0.000000 0.818003 0.000000
0.000000 0.817176 0.000000
0.000000 0.816078 0.000000
0.096684 0.814621 0.000000
0.274623 0.812686 0.000000
0.412562 0.810114 0.000000
0.544644 0.806692 0.000000
0.680324 0.802133 0.000000
0.824683 0.796048 0.000000
0.981464 0.787906 0.000000
1.000000 0.776974 0.000000
1.000000 0.762225 0.000000
1.000000 0.742194 0.000000
1.000000 0.714715 0.000000
1.000000 0.676454 0.000000
1.000000 0.621886 0.000000
1.000000 0.540669 0.000000
1.000000 0.408101 0.000000
1.000000 0.084867 0.000000
1.000000 0.000000 0.000000
1.000000 0.000000 0.000000
1.000000 0.000000 0.000000
1.000000 0.000000 0.000000
1.000000 0.000000 0.000000
0.000000 0.946439 0.000000
0.000000 0.946257 0.000000
0.000000 0.946075 0.000000
0.000000 0.945893 0.000000
0.000000 0.945711 0.000000
0.000000 0.945528 0.000000
0.000000 0.945352 0.000000
0.000000 0.945049 0.000000
0.000000 0.944647 0.000000
0.000000 0.944114 0.000000
0.000000 0.943407 0.000000
0.000000 0.942470 0.000000
0.000000 0.941226 0.000000
0.133809 0.939576 0.000000
0.330040 0.937383 0.000000
0.485037 0.934469 0.000000
0.634129 0.930592 0.000000
0.787599 0.925427 0.000000
0.951074 0.918534 0.000000
1.000000 0.909310 0.000000
1.000000 0.896927 0.000000
1.000000 0.880222 0.000000
1.000000 0.857534 0.000000
1.000000 0.826417 0.000000
1.000000 0.783099 0.000000
1.000000 0.721340 0.000000
1.000000 0.629485 0.000000
1.000000 0.479807 0.000000
1.000000 0.120535 0.000000
1.000000 0.000000 0.000000
1.000000 0.000000 0.000000
1.000000 0.000000 0.000000
1.000000 0.000000 0.000000
0.000000 1.000000 0.000000
0.000000 1.000000 0.000000
0.000000 1.000000 0.000000
0.000000 1.000000 0.000000
0.000000 1.000000 0.000000
0.000000 1.000000 0.000000
0.000000 1.000000 0.000000
0.000000 1.000000 0.000000
0.000000 1.000000 0.000000
0.000000 1.000000 0.000000
0.000000 1.000000 0.000000
0.000000 1.000000 0.000000
0.000000 1.000000 0.000000
0.000000 1.000000 0.000000
0.173979 1.000000 0.000000
0.392177 1.000000 0.000000
0.566796 1.000000 0.000000
0.735324 1.000000 0.000000
0.909066 1.000000 0.000000
1.000000 1.000000 0.000000
1.000000 1.000000 0.000000
1.000000 1.000000 0.000000
1.000000 1.000000 0.000000
1.000000 0.988198 0.000000
1.000000 0.952940 0.000000
1.000000 0.903865 0.000000
1.000000 0.833918 0.000000
1.000000 0.729939 0.000000
1.000000 0.560719 0.000000
1.000000 0.158995 0.000000
1.000000 0.000000 0.000000
1.000000 0.000000 0.000000
1.000000 0.000000 0.000000
0.000000 1.000000 0.000000
0.000000 1.000000 0.000000
0.000000 1.000000 0.000000
0.000000 1.000000 0.000000
0.000000 1.000000 0.000000
0.000000 1.000000 0.000000
0.000000 1.000000 0.000000
0.000000 1.000000 0.000000
0.000000 1.000000 0.000000
0.000000 1.000000 0.000000
0.000000 1.000000 0.000000
0.000000 1.000000 0.000000
0.000000 1.000000 0.000000
0.000000 1.000000 0.000000
0.000000 1.000000 0.000000
0.218073 1.000000 0.000000
0.462071 1.000000 0.000000
0.659169 1.000000 0.000000
0.849864 1.000000 0.000000
1.000000 1.000000 0.000000
1.000000 1.000000 0.000000
1.000000 1.000000 0.000000
1.000000 1.000000 0.000000
1.000000 1.000000 0.000000
1.000000 1.000000 0.000000
1.000000 1.000000 0.000000
1.000000 1.000000 0.000000
1.000000 0.961439 0.000000
1.000000 0.843656 0.000000
1.000000 0.652153 0.000000
1.000000 0.201117 0.000000
1.000000 0.000000 0.000000
1.000000 0.000000 0.000000
0.000000 1.000000 0.000000
0.000000 1.000000 0.000000
0.000000 1.000000 0.000000
0.000000 1.000000 0.000000
0.000000 1.000000 0.000000
0.000000 1.000000 0.000000
0.000000 1.000000 0.000000
0.000000 1.000000 0.000000
0.000000 1.000000 0.000000
0.000000 1.000000 0.000000
0.000000 1.000000 0.000000
0.000000 1.000000 0.000000
0.000000 1.000000 0.000000
0.000000 1.000000 0.000000
0.000000 1.000000 0.000000
0.000000 1.000000 0.000000
0.266936 1.000000 0.000000
0.540872 1.000000 0.000000
0.763657 1.000000 0.000000
0.979602 1.000000 0.000000
1.000000 1.000000 0.000000
1.000000 1.000000 0.000000
1.000000 1.000000 0.000000
1.000000 1.000000 0.000000
1.000000 1.000000 0.000000
1.000000 1.000000 0.000000
1.000000 1.000000 0.000000
1.000000 1.000000 0.000000
1.000000 1.000000 0.000000
1.000000 0.972473 0.000000
1.000000 0.755592 0.000000
1.000000 0.247725 0.000000
1.000000 0.000000 0.000000
0.000000 1.000000 0.000000
0.000000 1.000000 0.000000
0.000000 1.000000 0.000000
0.000000 1.000000 0.000000
0.000000 1.000000 0.000000
0.000000 1.000000 0.000000
0.000000 1.000000 0.000000
0.000000 1.000000 0.000000
0.000000 1.000000 0.000000
0.000000 1.000000 0.000000
0.000000 1.000000 0.000000
0.000000 1.000000 0.000000
0.000000 1.000000 0.000000
0.000000 1.000000 0.000000
0.000000 1.000000 0.000000
0.000000 1.000000 0.000000
0.000000 1.000000 0.000000
0.321441 1.000000 0.000000
0.629866 1.000000 0.000000
0.881950 1.000000 0.000000
1.000000 1.000000 0.000000
1.000000 1.000000 0.000000
1.000000 1.000000 0.000000
1.000000 1.000000 0.000000
1.000000 1.000000 0.000000
1.000000 1.000000 0.000000
1.000000 1.000000 0.000000
1.000000 1.000000 0.000000
1.000000 1.000000 0.000000
1.000000 1.000000 0.000000
1.000000 1.000000 0.000000
1.000000 0.872708 0.000000
1.000000 0.299658 0.000000
0.000000 1.000000 0.000000
0.000000 1.000000 0.000000
0.000000 1.000000 0.000000
0.000000 1.000000 0.000000
0.000000 1.000000 0.000000
0.000000 1.000000 0.000000
0.000000 1.000000 0.000000
0.000000 1.000000 0.000000
0.000000 1.000000 0.000000
0.000000 1.000000 0.000000
0.000000 1.000000 0.000000
0.000000 1.000000 0.000000
0.000000 1.000000 0.000000
0.000000 1.000000 0.000000
0.000000 1.000000 0.000000
0.000000 1.000000 0.000000
0.000000 1.000000 0.000000
0.000000 1.000000 0.000000
0.382522 1.000000 0.000000
0.730500 1.000000 0.000000
1.000000 1.000000 0.000000
1.000000 1.000000 0.000000
1.000000 1.000000 0.000000
1.000000 1.000000 0.000000
1.000000 1.000000 0.000000
1.000000 1.000000 0.000000
1.000000 1.000000 0.000000
1.000000 1.000000 0.000000
1.000000 1.000000 0.000000
1.000000 1.000000 0.000000
1.000000 1.000000 0.000000
1.000000 1.000000 0.000000
1.000000 1.000000 0.000000
0.000000 1.000000 0.000000
0.000000 1.000000 0.000000
0.000000 1.000000 0.000000
0.000000 1.000000 0.000000
0.000000 1.000000 0.000000
0.000000 1.000000 0.000000
0.000000 1.000000 0.000000
0.000000 1.000000 0.000000
0.000000 1.000000 0.000000
0.000000 1.000000 0.000000
0.000000 1.000000 0.000000
0.000000 1.000000 0.000000
0.000000 1.000000 0.000000
0.000000 1.000000 0.000000
0.000000 1.000000 0.000000
0.000000 1.000000 0.000000
0.000000 1.000000 0.000000
0.000000 1.000000 0.000000
0.000000 1.000000 0.000000
0.451198 1.000000 0.000000
0.844403 1.000000 0.000000
1.000000 1.000000 0.000000
1.000000 1.000000 0.000000
1.000000 1.000000 0.000000
1.000000 1.000000 0.000000
1.000000 1.000000 0.000000
1.000000 1.000000 0.000000
1.000000 1.000000 0.000000
1.000000 1.000000 0.000000
1.000000 1.000000 0.000000
1.000000 1.000000 0.000000
1.000000 1.000000 0.000000
1.000000 1.000000 0.000000
0.000000 1.000000 0.000000
0.000000 1.000000 0.000000
0.000000 1.000000 0.000000
0.000000 1.000000 0.000000
0.000000 1.000000 0.000000
0.000000 1.000000 0.000000
0.000000 1.000000 0.000000
0.000000 1.000000 0.000000
0.000000 1.000000 0.000000
0.000000 1.000000 0.000000
0.000000 1.000000 0.000000
0.000000 1.000000 0.000000
0.000000 1.000000 0.000000
0.000000 1.000000 0.000000
0.000000 1.000000 0.000000
0.000000 1.000000 0.000000
0.000000 1.000000 0.000000
0.000000 1.000000 0.000000
0.000000 1.000000 0.000000
0.000000 1.000000 0.000000
0.528604 1.000000 0.000000
0.973414 1.000000 0.000000
1.000000 1.000000 0.000000
1.000000 1.000000 0.000000
1.000000 1.000000 0.000000
1.000000 1.000000 0.000000
1.000000 1.000000 0.000000
1.000000 1.000000 0.000000
1.000000 1.000000 0.000000
1.000000 1.000000 0.000000
1.000000 1.000000 0.000000
1.000000 1.000000 0.000000
1.000000 1.000000 0.000000
0.000000 1.000000 0.000000
0.000000 1.000000 0.000000
0.000000 1.000000 0.000000
0.000000 1.000000 0.000000
0.000000 1.000000 0.000000
0.000000 1.000000 0.000000
0.000000 1.000000 0.000000
0.000000 1.000000 0.000000
0.000000 1.000000 0.000000
0.000000 1.000000 0.000000
0.000000 1.000000 0.000000
0.000000 1.000000 0.000000
0.000000 1.000000 0.000000
0.000000 1.000000 0.000000
0.000000 1.000000 0.000000
0.000000 1.000000 0.000000
0.000000 1.000000 0.000000
0.000000 1.000000 0.000000
0.000000 1.000000 0.000000
0.000000 1.000000 0.000000
0.000000 1.000000 0.000000
0.616003 1.000000 0.000000
1.000000 1.000000 0.000000
1.000000 1.000000 0.000000
1.000000 1.000000 0.000000
1.000000 1.000000 0.000000
1.000000 1.000000 0.000000
1.000000 1.000000 0.000000
